X: 1
T: The Russians Are Coming
R: reel
M: 4/4
L: 1/8
K: Gmaj
ABBA d2cA|BGGG dcBG|ABcA dcAd|ddcA BGGG|
ABBA d2cA|BGGG dcAB|GBBB GBeg|dBAc BGG2:|
fgaf g2fd|dcAc d^cdg|feaf g2fd|dBAc BGGg|
fgaf g2fd|dcAc d^cdg|~f3a agfg|a2ag fedc:|

